packages/blockchain-info-components/src/Images/img/bar-chart.svg

<svg fill="none" height="32" viewBox="0 0 32 32" width="32" xmlns="http://www.w3.org/2000/svg"><path d="m2.66602 11.6667c0-.5522.44771-1 1-1h3.71428c.55229 0 1 .4478 1 1v16.6667c0 .5523-.44771 1-1 1h-3.71428c-.55229 0-1-.4477-1-1zm10.66668-7.99995c0-.55229.4477-1 1-1h3.3333c.5523 0 1 .44771 1 1v24.66665c0 .5523-.4477 1-1 1h-3.3333c-.5523 0-1-.4477-1-1zm10.6667 15.23805c0-.5522.4477-1 1-1h3.3333c.5523 0 1 .4478 1 1v9.4286c0 .5523-.4477 1-1 1h-3.3333c-.5523 0-1-.4477-1-1z" fill="#0c6cf2"/></svg>

<svg width="32" height="32" viewBox="0 0 32 32" fill="none" xmlns="http://www.w3.org/2000/svg">
<path d="M2.66602 11.6667C2.66602 11.1145 3.11373 10.6667 3.66602 10.6667H7.3803C7.93259 10.6667 8.3803 11.1145 8.3803 11.6667L8.3803 28.3334C8.3803 28.8857 7.93259 29.3334 7.3803 29.3334H3.66602C3.11373 29.3334 2.66602 28.8857 2.66602 28.3334L2.66602 11.6667ZM13.3327 3.66675C13.3327 3.11446 13.7804 2.66675 14.3327 2.66675L17.666 2.66675C18.2183 2.66675 18.666 3.11446 18.666 3.66675V28.3334C18.666 28.8857 18.2183 29.3334 17.666 29.3334H14.3327C13.7804 29.3334 13.3327 28.8857 13.3327 28.3334L13.3327 3.66675ZM23.9994 18.9048C23.9994 18.3526 24.4471 17.9048 24.9994 17.9048H28.3327C28.885 17.9048 29.3327 18.3526 29.3327 18.9048V28.3334C29.3327 28.8857 28.885 29.3334 28.3327 29.3334H24.9994C24.4471 29.3334 23.9994 28.8857 23.9994 28.3334V18.9048Z" fill="#0C6CF2"/>
</svg>
